X:1
T:Title
%%score 1 2
L:1/8
Q:1/4=97
M:3/4
K:C
V:1 treble nm="Grand Piano, Soprano"
V:2 bass nm="Choir Pad, San Andreas, 76.76 D"
V:1
 [EG]2 [EG]3 [Ec] | [CE][DF] [FA]2 [EG]2 | [EG]2 [FB]3 [FA] | [EG][DF] [CE]4 | [CE]2 [CA]3 [CE] | %5
w: By~James~Holmes~Rosecrans,~1899 * *|||||
 [CA][EB] [Ec]2 [Ec]2 | [Ee]2 [Gd]3 [Dc] | [GB][^FA] G4 | [EG]2 [Fd]3 [FG] | [FA][FB] [Ec]2 [Ec]2 | %10
w: |||||
 [EG]2 [Fd]3 [FG] | [FA][FB] [Ec]4 | [EG]2 [Ec]3 [CE] | [DF][EG] [FA]2 [Ac]2 | [Ad]2 [Ge]3 [Ec] | %15
w: |||||
 [DB][Fd] [Ec]4- | [Ec]4 z2 |] %17
w: ||
V:2
 [C,C]2 [C,C]3 [C,G,] | [C,G,][C,G,] [C,C]2 [C,C]2 | [C,C]2 G,3 G, | [G,,G,][G,,G,] [C,G,]4 | %4
 [C,G,]2 [A,,A,]3 [A,,A,] | [A,,A,][E,^G,] A,2 A,2 | [C,C]2 [D,B,]3 [D,A,] | [D,D][D,C] [G,B,]4 | %8
 [G,C]2 [G,B,]3 [G,B,] | G,G, [C,G,]2 [C,G,]2 | [G,C]2 [G,B,]3 [G,B,] | G,G, [C,G,]4 | %12
 [C,C]2 [C,G,]3 [C,G,] | [C,G,][C,C] [F,C]2 [F,C]2 | [^F,C]2 [G,C]3 G, | G,G, [C,G,]4- | %16
 [C,G,]4 z2 |] %17

